X: 10479
T: Donnchadh Nedí's
R: barndance
M: 4/4
K: Dmajor
|:c|d>ef>d c>e g2|B2 c>B A>d f2|G>B e2 F>A d2|c>de>f gece|
d>ef>d c>e g2|B2 c>B A>d f2|G>B e2 F>Ad>A|1 c>de>c dAB:|2 c>de>c d>ef>g||
|:a2 f2 b2 f2|a2 g2 g2- g>f|g2 e2 b2 e2|g2 f2 f4|
A>de>f g2 g2|g>fe>f b2 a2|A>Bc>d e>gf>e|1 (3ded c>e d>ef>g:|2 (3ded c>e d>AB||

